X: 1
T: Delvin(e) House
R: strathspey
B: Kerr's 2nd
Z: 2004 John Chambers <jc:trillian.mit.edu>
M: C
L: 1/16
K: C
e \
| "C"c4 G3e c4 G3E | "Dm"Dd3 d3c "G7"BG3 A3B \
| "C"c3e "G/B"d3e "Am"c3e "(F)"A3c | "G7"G3A G3F "C"Gc3 c3 :|
e \
| "C"g3e c3e cdef g3e | "G7"f3d B3d  Bcde f3d \
| "C"g3e c3e g3e c3G | "F"Af3 "G7"e3d "C"e3c c3 ||
e \
| "C"g3e c3e "Am"cdef g3e | "Dm"f3d B3d  "G7"Bcde f3d \
| "C"eg3 "G/B"de3 "Am"ce3 "(F)"Ac3 | "G7"G3A G3F "C"Gc3 c3 |]
